X:46
T:THE LONDON HORNPIPE
B:John of the Greeny Cheshire Way
N: John Offord, Reproduced with permission
M:3/2
L:1/8
K:D
D2 F2 A2 d2 fg a2 | g2 e4 B2  dcBA | dABG AFGE FDEF | A,2 D4 GF E2 D2 |
BdBF  GBGE   FAFD | C2 E4 B,2 C2 E2| fafc dfdA GFED | A,2 D4 GF E2 D2 ||
